X:1
T:Se per servirti
T:Luca Marenzio
T:Source : Il quinto libro delle Villanelle a tre voci---Venetia---Herede di G.Scotto---1587. Editor : André Vierendeels (04/06/17).
T:Notes : Original clefs : C1, C2, F4 Editorial accisentals above the staff Music collected by Attilio Gualtieri
T:Se per servirti
T:©
T:©
C:Luca Marenzio
Z:©
%%score [ 1 2 3 ]
L:1/8
Q:1/4=120
M:4/4
K:C
V:1 treble nm="Soprano 1" snm="S 1"
V:2 treble nm="Soprano 2" snm="S 2"
V:3 bass nm="Bass" snm="B"
V:1
"^1)" z2 B2 c3 d | c2 A2 B4 | B2 d3 d e2 | c2 d2 B2 e2- | ed e2 d4 |[M:2/4] c4 :: z2 e2 | %7
w: Se per- ser-|vir- ti'ogn' ho-|ra, u- ni- co|del mio cor i|_ do- lo'e Nu-|me,|hai|
w: Las- so pos-|s'io ben di-|re, ch'hab- bi di|smal- to'il co- re'o|_ di dia- man-|te,|se|
[M:4/4] e3 c d2 e2 | c4 B2 B2 | c3 c c2 B2 | A4 A4 | z4 d4- | d2 c2 B4 | G2 G2 A4 | G8 :| %15
w: sem- pre per co-|stu- me, di|ren- der- nit' in-|gra- to,|ahi|_ che gra-|ve pec- ca-|to.|
w: l'es- ser mio con-|stan- te, non|ha gia- mai gio-|va- to,|che|_ non mi|fus- s'in- gra-|to|
V:2
"^2)""^1)" z2 G2 E3 D | E2 ^F2 G4 | G2 B3 B c2 | A2 A2 G2 G2- | GG c2 B4 |[M:2/4] c4 :: G4 | %7
w: Se per ser-|vir- ti'ogn' ho-|ra, u- ni- co|del mio cor i|_ do- lo'e Nu-|me,|hai|
w: Non cre- de-|vo'io gia- ma-|i, ch'un' a- mor|co- si sal- do|_ fi- fo'e for-|te,|tron-|
[M:4/4] G3 A G2 G2- | G2 ^F2 G2 G2 | A3 A A2 G2 | ^F4 F4 | z4 B4- | B2 A2 G4 | E2 G2 ^F4 | G8 :| %15
w: sem- pre per co-|* stu- me, di|ren- der- nit' in-|gra- to,|ahi|_ che gra-|ve pec- ca-|to.|
w: car po- tes- se|_ mor- te, ma'ahi|in- gra- t'a mer-|ce- de,|rom-|* pe'a- mo-|ro- sa fe-|de.|
V:3
"^3)""^1)""^4)" G,,4 C,3 B,, | A,,2 D,2 G,,4 | G,,2 G,3 G, E,2 | F,2 D,2 E,2 C,2- | C,B,, C,2 G,4 | %5
w: Se per ser-|vir- ti'ogn' ho-|ra, u- ni- co|del mio cor i|_ do- lo'e Nu-|
w: Dhe se miei|giu- sti pre-|ghi, pon- no'ha- ver|lo- co fa che|_ di sa- et-|
[M:2/4] C,4 :: z2 C2 |[M:4/4] C3 A, B,2 C2 | A,4 G,2 G,2 |"^-natural" F,3 F, F,2 G,2 | D,4 D,4 | %11
w: me,|hai|sem- pre per co-|stu- me, di|ren- der- nit' in-|gra- to,|
w: ta,|fac-|ci de- gna ven-|det- ta, d'un|co- s'in- gra- to|co- re,|
 z4 G,,4- | G,,2 A,,2 B,,4 | C,2 E,2 D,4 | G,,8 :| %15
w: ahi|_ che gra-|ve pec- ca-|to.|
w: per|_ me dol-|ce si- gno-|re.|

